svg/audio_video.svg

<svg xmlns="http://www.w3.org/2000/svg" viewBox="0 0 24 24"><path d="M20 7H4a2 2 0 0 0-2 2v6a2 2 0 0 0 2 2h1v1c0 .6.4 1 1 1h2c.6 0 1-.4 1-1v-1h6v1c0 .6.4 1 1 1h2c.6 0 1-.4 1-1v-1h1a2 2 0 0 0 2-2V9a2 2 0 0 0-2-2m-6 5H4v-2h10zm4 1a2 2 0 0 1-2-2 2 2 0 0 1 2-2 2 2 0 0 1 2 2 2 2 0 0 1-2 2M6 15H4v-1h2zm4 0H8v-1h2zm4 0h-2v-1h2z"/></svg>

<?xml version="1.0" encoding="UTF-8"?><!DOCTYPE svg PUBLIC "-//W3C//DTD SVG 1.1//EN" "http://www.w3.org/Graphics/SVG/1.1/DTD/svg11.dtd"><svg xmlns="http://www.w3.org/2000/svg" xmlns:xlink="http://www.w3.org/1999/xlink" version="1.1" id="mdi-audio-video" width="24" height="24" viewBox="0 0 24 24"><path d="M20,7H4A2,2 0 0,0 2,9V15A2,2 0 0,0 4,17H5V18C5,18.6 5.4,19 6,19H8C8.6,19 9,18.6 9,18V17H15V18C15,18.6 15.4,19 16,19H18C18.6,19 19,18.6 19,18V17H20A2,2 0 0,0 22,15V9A2,2 0 0,0 20,7M14,12H4V10H14V12M18,13A2,2 0 0,1 16,11A2,2 0 0,1 18,9A2,2 0 0,1 20,11A2,2 0 0,1 18,13M6,15H4V14H6V15M10,15H8V14H10V15M14,15H12V14H14V15Z" /></svg>
